X:810
T:Windmill, The
R:reel
C:Ciaran Tourish
D:Altan: Island Angel
M:C|
K:D
|:d2fd ceAc|dBGB AFDE|FB~B2 Adfd|eAce afge|
defd ceAc|dBGB AFDF|GFGA Bdfa|1 gece d2 (3ABc:|2 gece defg||
|:eA~A2 ~a3f|gA~A2 dFAd|B2AB ~G3F|EB,EF GABc|
dA~A2 eAaA|fddc dfed|cdef gfga|1 gece defg:|2 gece d2 (3ABc||

